X:1
T:Title
%%score { ( 1 4 ) | ( 2 3 ) }
L:1/8
Q:1/4=100
M:4/4
K:Ab
V:1 treble nm="Grand Piano"
V:4 treble 
V:2 bass 
V:3 bass 
V:1
 [Ec]4 [CA]3 c | [Fd]2 [CA]2 [Ec]3 c | [=DB]FGA [Dc]2 [DB]2 | [DB]6 z2 | [Ec]4 [CA]3 c | %5
w: Howard~E.~Smith * *|||||
 [Fd]2 [CA]2 [Ec]3 c | [=DB]FGA B2 c2 | [A,CA]6 z2 | [Ac]c c2 [Ac]c c2 | z4 [EAce]4 | %10
w: |||||
 [Ac]c c2 [Ac]c c2 | z4 [EGde]4 | z4 [de]4 | z4 [ce]4 | =d4 z4 | [GBd]6 z2 | [Ac]c c2 [Ac]c c2 | %17
w: |||||||
 z4 [EAce]4 | [Ac]c c2 [Ac]c c2 | z4 [EGde]4 | z4 [de]4 | z4 [ce]4 | =d4 z4 | [CAc]4 [Aca]2 z2 |] %24
w: |||||||
V:2
 A,,2 E,2 A,2 z E | A,,2 E,2 A,2 z E | z =DDD [B,,A,]4 | [E,G,]2 D,2 C,2 B,,2 | A,,2 E,2 A,2 z E | %5
 A,,2 E,2 A,2 z E | z =DDD _D2 E2 | A,,6 z2 | z F [E,A,CE]2 z F [E,A,CE]2 | %9
 A,,2 [E,A,CE]2 E,,2 E,2 | z F [E,A,CE]2 z F [E,A,CE]2 | [A,,A,]2 [=A,,=A,]2 [B,,B,]2 E,,2 | %12
 z[K:treble] c[K:bass] [E,G,D]2 E,,2 E,2 | z[K:treble] B[K:bass] [E,A,C]2 E,,2 E,2 | %14
 [B,,,B,,]2 [A,B,=D]2 [B,,,B,,]2 [A,B,D]2 | [E,E]2 D,2 C,2 B,,2 | z F [E,A,CE]2 z F [E,A,CE]2 | %17
 A,,2 [E,A,CE]2 E,,2 E,2 | z F [E,A,CE]2 z F [E,A,CE]2 | [A,,A,]2 [=A,,=A,]2 [B,,B,]2 E,,2 | %20
 z[K:treble] c[K:bass] [E,G,D]2 E,,2 E,2 | z[K:treble] B[K:bass] [E,A,C]2 E,,2 E,2 | %22
 [B,,,B,,]2 [A,=D]2 [E,,E,]2 [E,G,_D]2 | [A,,A,]2 [E,,E,]2 [A,,,A,,]2 z2 |] %24
V:3
 z4 z2 E,2 | z4 z2 E,2 | B,,4 z4 | x8 | z4 z2 E,2 | z4 z2 E,2 | B,,4 [E,G,]4 | x8 | %8
 A,,2 z2 E,,2 z2 | x8 | A,,2 z2 E,,2 z2 | x8 | B,,2[K:treble][K:bass] z2 z4 | %13
 A,,2[K:treble][K:bass] z2 z4 | x8 | x8 | A,,2 z2 E,,2 z2 | x8 | A,,2 z2 E,,2 z2 | x8 | %20
 B,,2[K:treble][K:bass] z2 z4 | A,,2[K:treble][K:bass] z2 z4 | x8 | x8 |] %24
V:4
 x8 | x8 | x8 | x8 | x8 | x8 | x8 | x8 | x8 | [EAce]2 [Ace]2 z2 [A,C]2 | x8 | %11
 [EAce]2 [EGce]2 z2 E,2 | [de]e [Be]2 z2 [G,D]2 | [ce]e [Ae]2 z2 [A,C]2 | BFGA [Ac=d]2 [ABd]2 | %15
 x8 | x8 | [EAce]2 [Ace]2 z2 [A,C]2 | x8 | [EAce]2 [EGce]2 z2 E,2 | [de]e [Be]2 z2 [G,D]2 | %21
 [ce]e [Ae]2 z2 [A,C]2 | BFGA [Ece]2 [B_d]2 | x8 |] %24

